dist/images/misc/hd-border-y.svg

<svg fill="none" height="763" viewBox="0 0 3 763" width="3" xmlns="http://www.w3.org/2000/svg"><path clip-rule="evenodd" d="m1.48902.00002918c-.03256 1.35202082-.3677 3.26009082-.35737 4.51608082.02144 2.64134-.282567 5.28665-.279391 7.92929.014295 8.976.01034 17.9481-.003955 26.9214-.016677 10.3533-.026217 20.7067-.089748 31.06-.034942 5.752-.194564 11.4999-.256507 17.2519-.053207 4.9453-.030966 9.8961-.073849 14.8413-.050031 5.752-.138979 11.5-.202511 17.249-.064325 5.852-.1215 11.698-.115941 17.554.012706 11.726-.250952 23.446-.00318 35.178.088944 4.248-.0905293 8.526.023033 12.768.175506 6.563.119114 13.108.031758 19.667-.045266 3.441.06989 6.896.124686 10.341.053208 3.332.155648 6.664.174708 9.996.016677 3.104-.08258 6.212-.067491 9.316.026207 5.406.150075 10.812.140546 16.219-.012707 7.36-.098474 14.723-.178683 22.081-.049236 4.486-.231079 8.97-.201696 13.451.050826 7.704.219965 15.409.343851 23.111.008736.574.046066 1.146.065125 1.721.325599 9.759.430416 19.524.248558 29.304-.01906 1.032.000006 2.071.026212 3.103.096092 3.784.208865 7.565.301775 11.352.07306 2.984.17233 5.969.17948 8.956.01191 5.025-.469347 24.845-.466171 27.488.014295 8.974.01034 17.948-.003955 26.92-.016677 10.354-.026217 20.706-.089748 31.06-.034942 5.752-.194564 11.5-.256507 17.252-.053207 4.945-.030966 9.896-.073849 14.841-.050031 5.752-.138979 11.5-.202511 17.249-.064325 5.852-.1215 11.698-.115941 17.555.012706 11.727-.250952 23.447-.00318 35.177.088944 4.25-.0905293 8.527.023033 12.768.175506 6.564.119114 13.108.031758 19.667-.045266 3.441.06989 6.896.124686 10.341.053208 3.334.155648 6.666.174708 9.998.016677 3.104-.08258 6.209-.067491 9.313.026207 5.408.150075 10.813.140546 16.22-.012707 7.361-.098474 14.721-.178683 22.081-.049236 4.486-.231079 8.97-.201696 13.451.050826 7.705.219965 15.409.343851 23.111.008736.574.046066 1.146.065125 1.721.325599 9.757.430416 19.525.248558 29.304-.01906 1.032.000006 2.071.026212 3.104.096092 3.783.208865 7.564.301775 11.349.07306 2.986.17233 5.971.17948 8.959.0143 6.097-.0262 12.195-.03812 18.295-.00159.55.17217.698.2087 1.485.59561.103.53908.064 1.48902.01.06512-.87-.06814-2.161-.05067-2.946.03812-1.607.04605-3.216.04764-4.824.0008-2.643.07624-5.305-.03891-7.925-.22157-5.047-.33035-10.088-.24458-15.154.03414-1.952.06987-3.906.04684-5.857-.05083-4.245-.13579-8.488-.21283-12.728-.04209-2.283.00318-4.584-.06353-6.843-.19616-6.641-.58766-13.256-.58845-19.928 0-2.185.01111-4.37.01428-6.554.00556-3.666-.17947-7.342.13977-10.994.04924-.55 0-1.716 0-1.716s-.07862-5.965-.0802-8.948c-.00318-6.433-.14136-12.854-.33831-19.272-.03256-1.029-.09846-2.064-.08973-3.093.08339-9.663.17788-19.324.27159-28.985.03018-3.219.05798-6.438.10245-9.654.05638-4.145-.14611-8.265-.20965-12.394-.10721-6.894-.09451-13.794-.11039-20.691-.00715-2.745-.14851-5.521.31129-8.197.08815-.515.08021-1.144.06036-1.711-.10562-2.971.16281-5.977-.18502-8.928-.06433-.543-.03099-1.143-.03575-1.716-.0413-4.473-.09212-8.944-.11753-13.415-.01827-3.216-.01112-6.433 0-9.65.01111-3.335.06989-6.67.05401-10.003-.01509-3.219-.08497-6.436-.15565-9.649-.07703-3.568.0802-7.122.08735-10.675.01111-6.901.13659-13.788.25968-20.679.0278-1.605.14216-3.204.16598-4.809.04686-3.211.06035-6.425.08496-9.637.0143-1.952-.00238-3.908.0413-5.858.06512-2.865.20967-5.722.25335-8.588.08338-5.277.17391-10.561.15803-15.842-.01826-5.976-.05401-11.967-.26843-17.92-.13262-3.687-.02621-7.343-.06433-11.011-.04368-4.099.38279-37.919.46856-42.984.03414-1.951.06987-3.905.04684-5.856-.05083-4.245-.13579-8.487-.21283-12.728-.04209-2.283.00318-4.585-.06353-6.843-.19616-6.641-.58766-13.256-.58845-19.929 0-2.184.01111-4.369.01428-6.553.00556-3.666-.17947-7.342.13977-10.994.04924-.55.00556-1.144 0-1.714-.027-2.984-.07862-5.967-.0802-8.95-.00318-6.434-.14136-12.854-.33831-19.272-.03256-1.03-.09846-2.062-.08973-3.093.08339-9.664.17788-19.324.27159-28.985.03018-3.22.05798-6.438.10245-9.654.05638-4.146-.14611-8.266-.20965-12.394-.10721-6.892-.09451-13.795-.11039-20.691-.00715-2.745-.14851-5.521.31129-8.197.08815-.515.08021-1.146.06036-1.711-.10562-2.972.16281-5.977-.18502-8.929-.06433-.542-.03099-1.14-.03575-1.716-.0413-4.472-.09212-8.942-.11753-13.414-.01827-3.216-.01112-6.433 0-9.652.01111-3.333.06989-6.669.05401-10.004-.01509-3.216-.08497-6.433-.15565-9.648-.07703-3.566.0802-7.12.08735-10.673.01111-6.903.13659-13.7879.25968-20.6786.0278-1.6066.14216-3.204.16598-4.8106.04686-3.2093.06035-6.4227.08496-9.636.0143-1.9521-.00238-3.908.0413-5.8574.06512-2.8667.20967-5.7227.25335-8.5893.08338-5.2787.17391-10.5613.15803-15.8414-.01826-5.9773-.05401-11.9666-.26843-17.9199-.13262-3.6867-.02621-7.3441-.06433-11.012-.04685-4.3614.41439-4.3571.39772-8.72242-.00556-1.46934.35736-6.66035.35736-8.16035082-1.48989.03398442 0 0-1.14469 0" fill="#495057" fill-rule="evenodd"/></svg>

<svg width="3" height="763" viewBox="0 0 3 763" fill="none" xmlns="http://www.w3.org/2000/svg">
<path fill-rule="evenodd" clip-rule="evenodd" d="M1.48902 2.91821e-05C1.45646 1.35205 1.12132 3.26012 1.13165 4.51611C1.15309 7.15745 0.849083 9.80276 0.852259 12.4454C0.866554 21.4214 0.862599 30.3935 0.848304 39.3668C0.831627 49.7201 0.822087 60.0735 0.758556 70.4268C0.723614 76.1788 0.563992 81.9267 0.502049 87.6787C0.448842 92.624 0.471083 97.5748 0.4282 102.52C0.378169 108.272 0.289221 114.02 0.225689 119.769C0.161364 125.621 0.104189 131.467 0.109748 137.323C0.122454 149.049 -0.141204 160.769 0.106568 172.501C0.195512 176.749 0.0160387 181.027 0.129601 185.269C0.305107 191.832 0.248715 198.377 0.161359 204.936C0.116093 208.377 0.231249 211.832 0.286045 215.277C0.339253 218.609 0.441693 221.941 0.460753 225.273C0.47743 228.377 0.378173 231.485 0.393262 234.589C0.419469 239.995 0.543337 245.401 0.533808 250.808C0.521101 258.168 0.435334 265.531 0.355125 272.889C0.305889 277.375 0.124046 281.859 0.153429 286.34C0.204255 294.044 0.373394 301.749 0.49728 309.451C0.506016 310.025 0.543346 310.597 0.562405 311.172C0.888004 320.931 0.992821 330.696 0.810963 340.476C0.791903 341.508 0.810969 342.547 0.837175 343.579C0.933267 347.363 1.04604 351.144 1.13895 354.931C1.21201 357.915 1.31128 360.9 1.31843 363.887C1.33034 368.912 0.849083 388.732 0.852259 391.375C0.866554 400.349 0.862599 409.323 0.848304 418.295C0.831627 428.649 0.822087 439.001 0.758556 449.355C0.723614 455.107 0.563992 460.855 0.502049 466.607C0.448842 471.552 0.471083 476.503 0.4282 481.448C0.378169 487.2 0.289221 492.948 0.225689 498.697C0.161364 504.549 0.104189 510.395 0.109748 516.252C0.122454 527.979 -0.141204 539.699 0.106568 551.429C0.195512 555.679 0.0160387 559.956 0.129601 564.197C0.305107 570.761 0.248715 577.305 0.161359 583.864C0.116093 587.305 0.231249 590.76 0.286045 594.205C0.339253 597.539 0.441693 600.871 0.460753 604.203C0.47743 607.307 0.378173 610.412 0.393262 613.516C0.419469 618.924 0.543337 624.329 0.533808 629.736C0.521101 637.097 0.435334 644.457 0.355125 651.817C0.305889 656.303 0.124046 660.787 0.153429 665.268C0.204255 672.973 0.373394 680.677 0.49728 688.379C0.506016 688.953 0.543346 689.525 0.562405 690.1C0.888004 699.857 0.992821 709.625 0.810963 719.404C0.791903 720.436 0.810969 721.475 0.837175 722.508C0.933267 726.291 1.04604 730.072 1.13895 733.857C1.21201 736.843 1.31128 739.828 1.31843 742.816C1.33273 748.913 1.29223 755.011 1.28031 761.111C1.27872 761.661 1.45248 761.809 1.48901 762.596C2.08462 762.699 2.02809 762.66 2.97803 762.606C3.04315 761.736 2.90989 760.445 2.92736 759.66C2.96548 758.053 2.97341 756.444 2.975 754.836C2.9758 752.193 3.05124 749.531 2.93609 746.911C2.71452 741.864 2.60574 736.823 2.69151 731.757C2.72565 729.805 2.76138 727.851 2.73835 725.9C2.68752 721.655 2.60256 717.412 2.52552 713.172C2.48343 710.889 2.5287 708.588 2.46199 706.329C2.26583 699.688 1.87433 693.073 1.87354 686.401C1.87354 684.216 1.88465 682.031 1.88782 679.847C1.89338 676.181 1.70835 672.505 2.02759 668.853C2.07683 668.303 2.02759 667.137 2.02759 667.137C2.02759 667.137 1.94897 661.172 1.94739 658.189C1.94421 651.756 1.80603 645.335 1.60908 638.917C1.57652 637.888 1.51062 636.853 1.51935 635.824C1.60274 626.161 1.69723 616.5 1.79094 606.839C1.82112 603.62 1.84892 600.401 1.89339 597.185C1.94977 593.04 1.74728 588.92 1.68374 584.791C1.57653 577.897 1.58923 570.997 1.57335 564.1C1.5662 561.355 1.42484 558.579 1.88464 555.903C1.97279 555.388 1.96485 554.759 1.945 554.192C1.83938 551.221 2.10781 548.215 1.75998 545.264C1.69565 544.721 1.72899 544.121 1.72423 543.548C1.68293 539.075 1.63211 534.604 1.6067 530.133C1.58843 526.917 1.59558 523.7 1.6067 520.483C1.61781 517.148 1.67659 513.813 1.66071 510.48C1.64562 507.261 1.57574 504.044 1.50506 500.831C1.42803 497.263 1.58526 493.709 1.59241 490.156C1.60352 483.255 1.729 476.368 1.85209 469.477C1.87989 467.872 1.99425 466.273 2.01807 464.668C2.06493 461.457 2.07842 458.243 2.10303 455.031C2.11733 453.079 2.10065 451.123 2.14433 449.173C2.20945 446.308 2.354 443.451 2.39768 440.585C2.48106 435.308 2.57159 430.024 2.55571 424.743C2.53745 418.767 2.5017 412.776 2.28728 406.823C2.15466 403.136 2.26107 399.48 2.22295 395.812C2.17927 391.713 2.60574 357.893 2.69151 352.828C2.72565 350.877 2.76138 348.923 2.73835 346.972C2.68752 342.727 2.60256 338.485 2.52552 334.244C2.48343 331.961 2.5287 329.659 2.46199 327.401C2.26583 320.76 1.87433 314.145 1.87354 307.472C1.87354 305.288 1.88465 303.103 1.88782 300.919C1.89338 297.253 1.70835 293.577 2.02759 289.925C2.07683 289.375 2.03315 288.781 2.02759 288.211C2.00059 285.227 1.94897 282.244 1.94739 279.261C1.94421 272.827 1.80603 266.407 1.60908 259.989C1.57652 258.959 1.51062 257.927 1.51935 256.896C1.60274 247.232 1.69723 237.572 1.79094 227.911C1.82112 224.691 1.84892 221.473 1.89339 218.257C1.94977 214.111 1.74728 209.991 1.68374 205.863C1.57653 198.971 1.58923 192.068 1.57335 185.172C1.5662 182.427 1.42484 179.651 1.88464 176.975C1.97279 176.46 1.96485 175.829 1.945 175.264C1.83938 172.292 2.10781 169.287 1.75998 166.335C1.69565 165.793 1.72899 165.195 1.72423 164.619C1.68293 160.147 1.63211 155.677 1.6067 151.205C1.58843 147.989 1.59558 144.772 1.6067 141.553C1.61781 138.22 1.67659 134.884 1.66071 131.549C1.64562 128.333 1.57574 125.116 1.50506 121.901C1.42803 118.335 1.58526 114.781 1.59241 111.228C1.60352 104.325 1.729 97.4401 1.85209 90.5494C1.87989 88.9428 1.99425 87.3454 2.01807 85.7388C2.06493 82.5295 2.07842 79.3161 2.10303 76.1028C2.11733 74.1507 2.10065 72.1948 2.14433 70.2454C2.20945 67.3787 2.354 64.5227 2.39768 61.6561C2.48106 56.3774 2.57159 51.0948 2.55571 45.8147C2.53745 39.8374 2.5017 33.8481 2.28728 27.8948C2.15466 24.2081 2.26107 20.5507 2.22295 16.8828C2.1761 12.5214 2.63734 12.5257 2.62067 8.16038C2.61511 6.69104 2.97803 1.50003 2.97803 2.91821e-05C1.48814 0.0340136 2.97803 2.91821e-05 1.83334 2.91821e-05" fill="#495057"/>
</svg>
